X:2471
T:Campbelss are coming,The. CJF.108
M:6/8
L:1/8
Q:120
S: C.J.Fox MS, 1829/33, Beverley,E.Yorks.
R:Jig
O:England
A:East Yorkshire
B:Kidson Coll.Mitchell Lib.M1805
Z:P J Headford 2000
K:G
A|B2g dBG|B>cBB2A|B2g dBG|A>BAA2G|!B2g dBG|B>cB gba|geg dBG|B>cBB2:|:!
d|g>ag gab|d>ed dBG|g>ag gab|gee e2d|!def gfe|def gba|geg dBG|B>cBB2:|]


